src/lib/packages/icons/src/assets/filled/star.svg

<svg width="24" height="24" viewBox="0 0 24 24" fill="none" xmlns="http://www.w3.org/2000/svg">
<path d="M12.962 4.59601L14.904 8.513C15.05 8.808 15.332 9.01202 15.659 9.05902L20.1419 9.70697C20.9639 9.82597 21.292 10.834 20.697 11.412L17.456 14.557C17.219 14.787 17.111 15.118 17.167 15.443L17.9079 19.747C18.0579 20.62 17.1409 21.286 16.3549 20.875L12.467 18.84C12.175 18.687 11.827 18.687 11.536 18.84L7.65096 20.873C6.86396 21.285 5.94393 20.618 6.09493 19.743L6.83602 15.443C6.89202 15.118 6.78396 14.787 6.54696 14.557L3.30599 11.412C2.70999 10.834 3.03792 9.82597 3.86092 9.70697L8.34395 9.05902C8.66995 9.01202 8.95196 8.808 9.09896 8.513L11.041 4.59601C11.432 3.80101 12.568 3.80101 12.962 4.59601Z" fill="currentColor"/>
</svg>

<svg xmlns="http://www.w3.org/2000/svg" width="24" height="24" fill="none"><path fill="currentColor" d="m12.962 4.596 1.942 3.917a1 1 0 0 0 .755.546l4.483.648a.999.999 0 0 1 .555 1.705l-3.241 3.145a.998.998 0 0 0-.289.886l.74 4.304c.15.873-.766 1.539-1.552 1.128l-3.888-2.035a1.002 1.002 0 0 0-.931 0l-3.885 2.033c-.787.412-1.707-.255-1.556-1.13l.741-4.3a.998.998 0 0 0-.289-.886l-3.241-3.145a.998.998 0 0 1 .555-1.705l4.483-.648c.326-.047.608-.251.755-.546l1.942-3.917c.391-.795 1.527-.795 1.921 0Z"/></svg>
